core/img/actions/video-switch.svg

<svg width="16" height="16" version="1.1" viewbox="0 0 16 16" xmlns="http://www.w3.org/2000/svg"><path d="m3 3c-1.108 0-2 0.892-2 2v6c0 1.108 0.892 2 2 2h6c1.108 0 2-0.892 2-2v-1.334l4 3.334v-10l-4 3.334v-1.334c0-1.108-0.892-2-2-2h-6zm1.5 3v1.4277h3.4277v-1.4277l2 2-2 2v-1.4277h-3.4277v1.4277l-2-2 2-2z"/></svg>

<svg xmlns="http://www.w3.org/2000/svg" width="16" height="16"><path d="M3 3c-1.108 0-2 .892-2 2v6c0 1.108.892 2 2 2h6c1.108 0 2-.892 2-2V9.666L15 13V3l-4 3.334V5c0-1.108-.892-2-2-2H3zm1.5 3v1.428h3.428V6l2 2-2 2V8.572H4.5V10l-2-2 2-2z"/></svg>
